images_sukapura_svg/cmd/32/insertbookmark.svg

<svg viewBox="0 0 32 32" xmlns="http://www.w3.org/2000/svg" xmlns:xlink="http://www.w3.org/1999/xlink"><radialGradient id="a" cx="22" cy="9.076923" gradientTransform="matrix(1.3 .00000001 -.00000002 1.5 -6.6 -6.615385)" gradientUnits="userSpaceOnUse" r="10"><stop offset="0" stop-color="#d7d7d7"/><stop offset=".29999998" stop-color="#f7f7f7"/><stop offset="1" stop-color="#fff"/></radialGradient><linearGradient id="b" gradientUnits="userSpaceOnUse" x1="20" x2="23" y1="9" y2="6"><stop offset="0" stop-color="#fff"/><stop offset=".77967989" stop-color="#f1f1f1"/><stop offset="1" stop-color="#d5d5d5"/></linearGradient><path d="m6 3v26h10v-13c0-1.090703.909297-2 2-2 .534088 0 1.017278.229481 1.378906.580078.261798-.341429.639252-.587078 1.148438-.580078.24625.003229.475059.073014.666015.177734h.001953l4.804688 2.63086v-6.808594l-7-7zm19.998047 20.791016-4.935547 2.09375c-.364441.155082-.718555-.038173-1.0625-.181641v3.296875h5.998047z" fill="url(#a)"/><path d="m5.9980469 2c-.554 0-1 .446-1 1v26c0 .554.446 1 1 1h10.0019531v-1h-10.0019531v-26h13.0000001v6c0 .6726441.491378 1 1 1h6v6.806641l1 .548828v-8.9707034l-6.507813-6.3847656zm21.0000001 21.367188-1 .423828v5.208984h-5.998047v1h5.998047c.554 0 .892483-.456533 1-1z" fill="#98989d"/><path d="m20.513641 15.000039c-.282697-.0039-.513491.281395-.513641.634749v8.73025c.000364.434941.342414.740751.671834.600571l8.985781-3.810939c.436842-.188435.46197-.948776.03905-1.181612l-8.983823-4.919309c-.06283-.03454-.130575-.05281-.199206-.05371z" fill="#0a84ff"/><rect fill="#98989d" height="16" ry="1" width="2" x="17" y="15"/><path d="m20 9h6l-6-6z" fill="url(#b)" fill-rule="evenodd"/></svg>

<?xml version="1.0" encoding="UTF-8" standalone="no"?>
<svg
   xmlns:dc="http://purl.org/dc/elements/1.1/"
   xmlns:cc="http://creativecommons.org/ns#"
   xmlns:rdf="http://www.w3.org/1999/02/22-rdf-syntax-ns#"
   xmlns:svg="http://www.w3.org/2000/svg"
   xmlns="http://www.w3.org/2000/svg"
   xmlns:xlink="http://www.w3.org/1999/xlink"
   xmlns:sodipodi="http://sodipodi.sourceforge.net/DTD/sodipodi-0.dtd"
   xmlns:inkscape="http://www.inkscape.org/namespaces/inkscape"
   viewBox="0 0 32 32"
   version="1.1"
   id="svg12"
   sodipodi:docname="insertbookmark.svg"
   inkscape:version="0.92.3 (unknown)">
  <metadata
     id="metadata18">
    <rdf:RDF>
      <cc:Work
         rdf:about="">
        <dc:format>image/svg+xml</dc:format>
        <dc:type
           rdf:resource="http://purl.org/dc/dcmitype/StillImage" />
        <dc:title></dc:title>
      </cc:Work>
    </rdf:RDF>
  </metadata>
  <defs
     id="defs16">
    <radialGradient
       inkscape:collect="always"
       xlink:href="#linearGradient870"
       id="radialGradient871"
       cx="22"
       cy="9.0769234"
       fx="22"
       fy="9.0769234"
       r="10"
       gradientTransform="matrix(1.3,1.4660479e-8,-1.6915937e-8,1.5,-6.6,-6.6153852)"
       gradientUnits="userSpaceOnUse" />
    <linearGradient
       inkscape:collect="always"
       id="linearGradient870">
      <stop
         style="stop-color:#d7d7d7;stop-opacity:1"
         offset="0"
         id="stop866" />
      <stop
         id="stop874"
         offset="0.29999998"
         style="stop-color:#f7f7f7;stop-opacity:1" />
      <stop
         style="stop-color:#ffffff;stop-opacity:1"
         offset="1"
         id="stop868" />
    </linearGradient>
    <linearGradient
       inkscape:collect="always"
       xlink:href="#linearGradient882"
       id="linearGradient879"
       x1="20"
       y1="9"
       x2="23"
       y2="6"
       gradientUnits="userSpaceOnUse" />
    <linearGradient
       inkscape:collect="always"
       id="linearGradient882">
      <stop
         style="stop-color:#ffffff;stop-opacity:1;"
         offset="0"
         id="stop878" />
      <stop
         id="stop886"
         offset="0.77967989"
         style="stop-color:#f1f1f1;stop-opacity:1" />
      <stop
         style="stop-color:#d5d5d5;stop-opacity:1"
         offset="1"
         id="stop880" />
    </linearGradient>
  </defs>
  <sodipodi:namedview
     pagecolor="#ffffff"
     bordercolor="#666666"
     borderopacity="1"
     objecttolerance="10"
     gridtolerance="10"
     guidetolerance="10"
     inkscape:pageopacity="0"
     inkscape:pageshadow="2"
     inkscape:window-width="1366"
     inkscape:window-height="706"
     id="namedview14"
     showgrid="false"
     inkscape:zoom="7.375"
     inkscape:cx="-1.4237288"
     inkscape:cy="16"
     inkscape:window-x="0"
     inkscape:window-y="0"
     inkscape:window-maximized="1"
     inkscape:current-layer="svg12" />
  <path
     style="fill:url(#radialGradient871);fill-opacity:1"
     d="M 6 3 L 6 29 L 16 29 L 16 16 C 16 14.909297 16.909297 14 18 14 C 18.534088 14 19.017278 14.229481 19.378906 14.580078 C 19.640704 14.238649 20.018158 13.993 20.527344 14 C 20.773594 14.003229 21.002403 14.073014 21.193359 14.177734 L 21.195312 14.177734 L 26 16.808594 L 26 10 L 19 3 L 6 3 z M 25.998047 23.791016 L 21.0625 25.884766 C 20.698059 26.039848 20.343945 25.846593 20 25.703125 L 20 29 L 25.998047 29 L 25.998047 23.791016 z "
     id="path2-3" />
  <path
     d="m5.9980469 2c-.554 0-1 .446-1 1v26c0 .554.446 1 1 1h10.0019531v-1h-10.0019531v-26h13.0000001v6c0 .6726441.491378 1 1 1h6v6.806641l1 .548828v-8.9707034l-6.507813-6.3847656zm21.0000001 21.367188-1 .423828v5.208984h-5.998047v1h5.998047c.554 0 .892483-.456533 1-1z"
     fill="#808080"
     id="path4"
     style="fill:#98989d;fill-opacity:1" />
  <path
     d="m20.513641 15.000039c-.282697-.0039-.513491.281395-.513641.634749v8.73025c.000364.434941.342414.740751.671834.600571l8.985781-3.810939c.436842-.188435.46197-.948776.03905-1.181612l-8.983823-4.919309c-.06283-.03454-.130575-.05281-.199206-.05371z"
     fill="#4d82b8"
     id="path8"
     style="fill:#0a84ff;fill-opacity:1" />
  <rect
     fill="#808080"
     height="16"
     ry="1"
     width="2"
     x="17"
     y="15"
     id="rect10"
     style="fill:#98989d;fill-opacity:1" />
  <path
     inkscape:connector-curvature="0"
     style="fill:url(#linearGradient879);fill-opacity:1;fill-rule:evenodd"
     id="path6"
     d="m 20,9 h 6 L 20,3 Z" />
</svg>
